images/search.svg

<svg width="44" height="64" viewBox="0 0 44 64" fill="none" xmlns="http://www.w3.org/2000/svg">
<path d="M31.5 40.0083L27.8 36.3287C28.8 35.0359 29.5 33.3453 29.5 31.4558C29.5 27.0801 25.9 23.5 21.5 23.5C17.1 23.5 13.5 27.1796 13.5 31.5552C13.5 35.9309 17.1 39.511 21.5 39.511C23.3 39.511 25 38.9144 26.4 37.8204L30.1 41.5L31.5 40.0083ZM21.5 37.5221C18.2 37.5221 15.5 34.837 15.5 31.5552C15.5 28.2735 18.2 25.5884 21.5 25.5884C24.8 25.5884 27.5 28.2735 27.5 31.5552C27.5 34.837 24.8 37.5221 21.5 37.5221Z" fill="black"/>
</svg>

<svg xmlns="http://www.w3.org/2000/svg" width="44" height="64" fill="none"><path fill="#000" d="m31.5 40.008-3.7-3.68c1-1.292 1.7-2.983 1.7-4.872 0-4.376-3.6-7.956-8-7.956s-8 3.68-8 8.055c0 4.376 3.6 7.956 8 7.956 1.8 0 3.5-.597 4.9-1.69l3.7 3.679 1.4-1.492Zm-10-2.486c-3.3 0-6-2.685-6-5.967 0-3.282 2.7-5.967 6-5.967s6 2.685 6 5.967c0 3.282-2.7 5.967-6 5.967Z"/></svg>
